static/fa/svgs/solid/building-circle-arrow-right.svg

<svg xmlns="http://www.w3.org/2000/svg" viewBox="0 0 640 512"><!--! Font Awesome Free 6.1.1 by @fontawesome - https://fontawesome.com License - https://fontawesome.com/license/free (Icons: CC BY 4.0, Fonts: SIL OFL 1.1, Code: MIT License) Copyright 2022 Fonticons, Inc.--><path d="M0 48C0 21.49 21.49 0 48 0h288c26.5 0 48 21.49 48 48v184.2c-39.1 32.3-64 81.1-64 135.8 0 49.5 20.4 94.2 53.3 126.2-8.8 10.9-22.2 17.8-37.3 17.8h-96v-80c0-26.5-21.5-48-48-48s-48 21.5-48 48v80H48c-26.51 0-48-21.5-48-48V48zm80 176c-8.84 0-16 7.2-16 16v32c0 8.8 7.16 16 16 16h32c8.8 0 16-7.2 16-16v-32c0-8.8-7.2-16-16-16H80zm80 48c0 8.8 7.2 16 16 16h32c8.8 0 16-7.2 16-16v-32c0-8.8-7.2-16-16-16h-32c-8.8 0-16 7.2-16 16v32zm112-48c-8.8 0-16 7.2-16 16v32c0 8.8 7.2 16 16 16h32c8.8 0 16-7.2 16-16v-32c0-8.8-7.2-16-16-16h-32zM64 144c0 8.8 7.16 16 16 16h32c8.8 0 16-7.2 16-16v-32c0-8.8-7.2-16-16-16H80c-8.84 0-16 7.2-16 16v32zm112-48c-8.8 0-16 7.2-16 16v32c0 8.8 7.2 16 16 16h32c8.8 0 16-7.2 16-16v-32c0-8.8-7.2-16-16-16h-32zm80 48c0 8.8 7.2 16 16 16h32c8.8 0 16-7.2 16-16v-32c0-8.8-7.2-16-16-16h-32c-8.8 0-16 7.2-16 16v32zm384 224c0 79.5-64.5 144-144 144s-144-64.5-144-144 64.5-144 144-144 144 64.5 144 144zm-147.3-44.7 28.7 28.7H432c-8.8 0-16 7.2-16 16s7.2 16 16 16h89.4l-28.7 28.7c-6.3 6.2-6.3 16.4 0 22.6 6.2 6.3 16.4 6.3 22.6 0l56-56c6.3-6.2 6.3-16.4 0-22.6l-56-56c-6.2-6.3-16.4-6.3-22.6 0-6.3 6.2-6.3 16.4 0 22.6z"/></svg>

<svg xmlns="http://www.w3.org/2000/svg" viewBox="0 0 640 512"><!--! Font Awesome Free 6.1.1 by @fontawesome - https://fontawesome.com License - https://fontawesome.com/license/free (Icons: CC BY 4.0, Fonts: SIL OFL 1.1, Code: MIT License) Copyright 2022 Fonticons, Inc. --><path d="M0 48C0 21.49 21.49 0 48 0H336C362.5 0 384 21.49 384 48V232.2C344.9 264.5 320 313.3 320 368C320 417.5 340.4 462.2 373.3 494.2C364.5 505.1 351.1 512 336 512H240V432C240 405.5 218.5 384 192 384C165.5 384 144 405.5 144 432V512H48C21.49 512 0 490.5 0 464V48zM80 224C71.16 224 64 231.2 64 240V272C64 280.8 71.16 288 80 288H112C120.8 288 128 280.8 128 272V240C128 231.2 120.8 224 112 224H80zM160 272C160 280.8 167.2 288 176 288H208C216.8 288 224 280.8 224 272V240C224 231.2 216.8 224 208 224H176C167.2 224 160 231.2 160 240V272zM272 224C263.2 224 256 231.2 256 240V272C256 280.8 263.2 288 272 288H304C312.8 288 320 280.8 320 272V240C320 231.2 312.8 224 304 224H272zM64 144C64 152.8 71.16 160 80 160H112C120.8 160 128 152.8 128 144V112C128 103.2 120.8 96 112 96H80C71.16 96 64 103.2 64 112V144zM176 96C167.2 96 160 103.2 160 112V144C160 152.8 167.2 160 176 160H208C216.8 160 224 152.8 224 144V112C224 103.2 216.8 96 208 96H176zM256 144C256 152.8 263.2 160 272 160H304C312.8 160 320 152.8 320 144V112C320 103.2 312.8 96 304 96H272C263.2 96 256 103.2 256 112V144zM640 368C640 447.5 575.5 512 496 512C416.5 512 352 447.5 352 368C352 288.5 416.5 224 496 224C575.5 224 640 288.5 640 368zM492.7 323.3L521.4 352H432C423.2 352 416 359.2 416 368C416 376.8 423.2 384 432 384H521.4L492.7 412.7C486.4 418.9 486.4 429.1 492.7 435.3C498.9 441.6 509.1 441.6 515.3 435.3L571.3 379.3C577.6 373.1 577.6 362.9 571.3 356.7L515.3 300.7C509.1 294.4 498.9 294.4 492.7 300.7C486.4 306.9 486.4 317.1 492.7 323.3V323.3z"/></svg>
